static/icons/linkedin.svg

<svg xmlns="http://www.w3.org/2000/svg" viewBox="0 0 24 24"><path d="M4.00098 3H20.001C20.5533 3 21.001 3.44772 21.001 4V20C21.001 20.5523 20.5533 21 20.001 21H4.00098C3.44869 21 3.00098 20.5523 3.00098 20V4C3.00098 3.44772 3.44869 3 4.00098 3ZM5.00098 5V19H19.001V5H5.00098ZM7.50098 9C6.67255 9 6.00098 8.32843 6.00098 7.5C6.00098 6.67157 6.67255 6 7.50098 6C8.3294 6 9.00098 6.67157 9.00098 7.5C9.00098 8.32843 8.3294 9 7.50098 9ZM6.50098 10H8.50098V17.5H6.50098V10ZM12.001 10.4295C12.5854 9.86534 13.2665 9.5 14.001 9.5C16.072 9.5 17.501 11.1789 17.501 13.25V17.5H15.501V13.25C15.501 12.2835 14.7175 11.5 13.751 11.5C12.7845 11.5 12.001 12.2835 12.001 13.25V17.5H10.001V10H12.001V10.4295Z" fill="currentColor"></path></svg>

<svg xmlns="http://www.w3.org/2000/svg" viewBox="0 0 24 24"><path fill="currentColor" d="M4.001 3h16a1 1 0 0 1 1 1v16a1 1 0 0 1-1 1h-16a1 1 0 0 1-1-1V4a1 1 0 0 1 1-1m1 2v14h14V5zm2.5 4a1.5 1.5 0 1 1 0-3 1.5 1.5 0 0 1 0 3m-1 1h2v7.5h-2zm5.5.43c.584-.565 1.266-.93 2-.93 2.071 0 3.5 1.679 3.5 3.75v4.25h-2v-4.25a1.75 1.75 0 1 0-3.5 0v4.25h-2V10h2z"/></svg>
